src/maasserver/static/assets/images/icons/info-mono.svg

<?xml version="1.0" encoding="UTF-8" standalone="no"?>
<!-- Created with Inkscape (http://www.inkscape.org/) -->

<svg
   xmlns:dc="http://purl.org/dc/elements/1.1/"
   xmlns:cc="http://creativecommons.org/ns#"
   xmlns:rdf="http://www.w3.org/1999/02/22-rdf-syntax-ns#"
   xmlns:svg="http://www.w3.org/2000/svg"
   xmlns="http://www.w3.org/2000/svg"
   xmlns:sodipodi="http://sodipodi.sourceforge.net/DTD/sodipodi-0.dtd"
   xmlns:inkscape="http://www.inkscape.org/namespaces/inkscape"
   width="16.000017"
   height="16.000017"
   id="svg5918"
   version="1.1"
   inkscape:version="0.91+devel r"
   viewBox="0 0 16.000017 16.000017"
   sodipodi:docname="information_mono01.svg">
  <defs
     id="defs5920" />
  <sodipodi:namedview
     id="base"
     pagecolor="#dedede"
     bordercolor="#666666"
     borderopacity="1.0"
     inkscape:pageopacity="0"
     inkscape:pageshadow="2"
     inkscape:zoom="37.947076"
     inkscape:cx="-2.1722784"
     inkscape:cy="4.3221926"
     inkscape:document-units="px"
     inkscape:current-layer="g6413"
     showgrid="true"
     fit-margin-top="0"
     fit-margin-left="0"
     fit-margin-right="0"
     fit-margin-bottom="0"
     inkscape:snap-bbox="true"
     inkscape:bbox-paths="true"
     inkscape:bbox-nodes="true"
     inkscape:snap-bbox-edge-midpoints="true"
     inkscape:snap-bbox-midpoints="true"
     inkscape:object-paths="true"
     inkscape:snap-intersection-paths="true"
     inkscape:object-nodes="true"
     inkscape:snap-smooth-nodes="true"
     inkscape:snap-midpoints="true"
     inkscape:snap-object-midpoints="true"
     inkscape:snap-center="true"
     inkscape:snap-global="true">
    <inkscape:grid
       type="xygrid"
       id="grid4137"
       originx="-0.00011142332px"
       originy="-8.9999724px" />
  </sodipodi:namedview>
  <metadata
     id="metadata5923">
    <rdf:RDF>
      <cc:Work
         rdf:about="">
        <dc:format>image/svg+xml</dc:format>
        <dc:type
           rdf:resource="http://purl.org/dc/dcmitype/StillImage" />
        <dc:title></dc:title>
      </cc:Work>
    </rdf:RDF>
  </metadata>
  <g
     inkscape:label="Layer 1"
     inkscape:groupmode="layer"
     id="layer1"
     transform="translate(-182.93849,-560.72008)">
    <g
       style="display:inline"
       transform="matrix(0.66666607,0,0,0.66666668,-633.06096,6.8119427)"
       id="g5687" />
    <g
       style="display:inline"
       id="g6413"
       transform="translate(-769.06151,364.35791)">
      <rect
         style="color:#000000;display:inline;overflow:visible;visibility:visible;opacity:1;fill:none;fill-opacity:1;fill-rule:nonzero;stroke:none;stroke-width:1.5;stroke-linecap:butt;stroke-linejoin:miter;stroke-miterlimit:4;stroke-dasharray:1.5, 1.5;stroke-dashoffset:0.60000002;stroke-opacity:1;marker:none;enable-background:accumulate"
         id="rect6415"
         width="16"
         height="16"
         x="952"
         y="196.36218" />
      <path
         style="color:#000000;display:inline;overflow:visible;visibility:visible;opacity:1;fill:#ffffff;fill-opacity:1;fill-rule:nonzero;stroke:none;stroke-width:0.99999994;stroke-linecap:butt;stroke-linejoin:miter;stroke-miterlimit:4;stroke-dasharray:none;stroke-dashoffset:0;stroke-opacity:1;marker:none;enable-background:accumulate"
         d="M 1.0664062 0 C 0.47545941 0 0 0.47545941 0 1.0664062 L 0 14.933594 C 0 15.524541 0.47545941 16 1.0664062 16 L 14.933594 16 C 15.524541 16 16 15.524541 16 14.933594 L 16 1.0664062 C 16 0.47545941 15.524541 0 14.933594 0 L 1.0664062 0 z M 7 3 L 9 3 L 9 5 L 7 5 L 7 3 z M 7 7 L 9 7 L 9 13 L 7 13 L 7 7 z "
         transform="translate(952,196.36217)"
         id="rect4263" />
    </g>
  </g>
</svg>

<svg xmlns="http://www.w3.org/2000/svg" width="16" height="16" viewBox="0 0 16.000017 16.000017"><g color="#000"><path style="marker:none" overflow="visible" fill="none" d="M0 0h16v16H0z"/><path style="marker:none" d="M1.066 0C.476 0 0 .475 0 1.066v13.868C0 15.524.475 16 1.066 16h13.868c.59 0 1.066-.475 1.066-1.066V1.066C16 .476 15.525 0 14.934 0H1.066zM7 3h2v2H7V3zm0 4h2v6H7V7z" overflow="visible" fill="#fff"/></g></svg>
